Newaita/actions/scalable/mail-invitation.svg

<?xml version="1.0" encoding="UTF-8"?>
<svg xmlns="http://www.w3.org/2000/svg" xmlns:xlink="http://www.w3.org/1999/xlink" width="512pt" height="512pt" viewBox="0 0 512 512" version="1.1">
<g id="surface1">
<path style=" stroke:none;fill-rule:nonzero;fill:rgb(25.882354%,25.882354%,25.882354%);fill-opacity:1;" d="M 444.542969 67.507812 C 467.996094 67.507812 486.878906 86.386719 486.878906 109.84375 L 486.878906 416.789062 C 486.878906 440.246094 467.996094 459.125 444.542969 459.125 L 201.101562 459.125 L 201.101562 427.375 L 433.957031 427.375 C 445.6875 427.375 455.125 417.933594 455.125 406.207031 L 455.125 123.789062 L 266.210938 292.816406 C 259.273438 299.023438 248.777344 299.023438 241.835938 292.816406 L 52.921875 123.789062 L 52.921875 279.191406 L 21.167969 279.191406 L 21.167969 109.84375 C 21.167969 86.386719 40.050781 67.507812 63.507812 67.507812 Z M 427.714844 99.257812 L 80.335938 99.257812 L 254.023438 254.664062 Z M 427.714844 99.257812 "/>
<path style=" stroke:none;fill-rule:nonzero;fill:rgb(25.882354%,64.705884%,96.078432%);fill-opacity:1;" d="M 68.371094 399.039062 C 40.558594 405.5 21.167969 420.457031 21.167969 437.957031 L 21.167969 448.542969 C 21.167969 454.40625 25.890625 459.125 31.753906 459.125 L 169.347656 459.125 C 175.214844 459.125 179.933594 454.40625 179.933594 448.542969 L 179.933594 437.957031 C 179.933594 420.457031 160.542969 405.5 132.730469 399.039062 C 124.269531 406.78125 112.980469 411.496094 100.550781 411.496094 C 88.121094 411.496094 76.835938 406.78125 68.371094 399.039062 Z M 68.371094 399.039062 "/>
<path style=" stroke:none;fill-rule:nonzero;fill:rgb(25.882354%,64.705884%,96.078432%);fill-opacity:1;" d="M 100.550781 289.777344 C 126.855469 289.777344 148.179688 311.101562 148.179688 337.40625 C 148.179688 363.710938 126.855469 385.035156 100.550781 385.035156 C 74.246094 385.035156 52.921875 363.710938 52.921875 337.40625 C 52.921875 311.101562 74.246094 289.777344 100.550781 289.777344 Z M 100.550781 289.777344 "/>
</g>
</svg>

<svg xmlns="http://www.w3.org/2000/svg" width="512pt" height="512pt" viewBox="0 0 512 512"><path d="M444.543 67.508c23.453 0 42.336 18.879 42.336 42.336v306.945c0 23.457-18.883 42.336-42.336 42.336H201.102v-31.75h232.855a21.12 21.12 0 0 0 21.168-21.168V123.789L266.211 292.816c-6.938 6.207-17.434 6.207-24.375 0L52.922 123.79v155.402H21.168V109.844c0-23.457 18.883-42.336 42.34-42.336zm-16.828 31.75H80.335l173.688 155.406zm0 0" fill="#424242"/><path d="M68.371 399.04c-27.812 6.46-47.203 21.417-47.203 38.917v10.586a10.561 10.561 0 0 0 10.586 10.582h137.594a10.559 10.559 0 0 0 10.586-10.582v-10.586c0-17.5-19.391-32.457-47.204-38.918-8.46 7.742-19.75 12.457-32.18 12.457-12.429 0-23.714-4.715-32.179-12.457zm0 0M100.55 289.777c26.305 0 47.63 21.325 47.63 47.63 0 26.304-21.325 47.628-47.63 47.628-26.304 0-47.628-21.324-47.628-47.629 0-26.304 21.324-47.629 47.629-47.629zm0 0" fill="#42a5f5"/></svg>
